X:1
T:Christ Is Risen
T:Christ Is Risen
T:William James Kirkpatrick
T:Hattie M. Bird, 1884
T:Public Domain Courtesy of the Cyber Hymnal™
T:Public Domain Courtesy of the Cyber Hymnal™
C:William James Kirkpatrick
Z:Public Domain
Z:Courtesy of the Cyber Hymnal™
%%score ( 1 2 ) ( 3 4 )
L:1/8
Q:1/4=98
M:3/4
K:G
V:1 treble 
V:2 treble 
V:3 bass 
V:4 bass 
V:1
 D>D | [B,G]2 [B,D]2 [DG]>[DG] | [DA]2 D2 [DA]>[DA] | [DB]3 [DA] [DG][DB] | [DA]4 [CD]>[CD] | %5
w: 1.~Christ is|ris- en, Christ is|ris- en, Let our|hearts with glad- ness|sing; Ne- ver-|
w: 2.~Oh, that|all could know this|sto- ry, Of the|Sav- ior’s won- drous|love, How the|
w: 3.~If to|fol- low Him we’re|striv- ing, And our|cross- es meek- ly|bear, At His|
 [B,G]2 [B,D]2 [DG]>[DB] | [EA]2 [CE]2 [EA][Ec] | [DB]3 [DA] [DG][DF] | [DG]4 [DF]>[EG] | %9
w: more shall tomb im-|pri- son Je- sus|Christ, our Lord and|king. To our|
w: Lord left all His|glo- ry, Left His|hap- py home a-|bove; And to|
w: hap- py home ar-|riv- ing, We shall|in His glo- ry|share. Then to|
 [FA]2 [Fd]2 [DF]>[GB] | [FA]2 [DF]2 [Dd]>[D^c] | [DB]3 [DA] [^CG][DF] | [^CE]4 [DF]>[EG] | %13
w: cap- tain and de-|fen- der We would|ev- ery tri- bute|pay; Lov- ing|
w: show the love He|bore us, And the|price of sin to|pay, O- ver|
w: Him who died to|save us, Grate- ful|hom- age let us|pay; His own|
 [FA]2 [Fd]2 [FB]>[F^A] | [GB]2 [Ge]4 | [Fd][G^c] [GB][GA] [GB][Gc] | d6 || %17
w: ser- vice we would|ren- der,|On this hap- py Eas- ter|Day.|
w: death be- came vic-|tor- ious,|So we keep His Eas- ter|Day.|
w: life He free- ly|gave us,|So we keep His Eas- ter|Day.|
"^Refrain" [DG]>[DG] [DG]D (BA) | [DG]>[DG] [DG]D [B,G][DA] | [GB]>[GB] [DA]2 [EG]2 | [Fd]6 | %21
w: ||||
w: Hal- le- lu- jah! sing, *|hal- le- lu- jah! Let our|hearts with glad- ness|ring;|
w: ||||
 [Gd]>[Gd] [GB]G x2 | [Ge]>[Ge] [Gc][EA] [Bd][Ac] | [GB]3 G [FB][FA] | [DG]4 |] %25
w: ||||
w: Hal- le- lu- jah!|sing, hal- le- lu- jah! Christ|is ris’n our Lord|and|
w: ||||
V:2
 D>D | x6 | x2 D2 x2 | x6 | x6 | x6 | x6 | x6 | x6 | x6 | x6 | x6 | x6 | x6 | x6 | x6 | %16
 (F2 G2 A2) || x3 D x2 | x3 D x2 | x6 | x6 | x3 G (cd) | x6 | x3 G x2 | x4 |] %25
V:3
 D,>D, | [G,,D,]2 [G,,G,]2 [G,B,]>[G,B,] | [D,F,]2 [D,F,]2 [D,F,]>[D,F,] | %3
 G,3 [D,F,] [B,,G,][G,,G,] | [D,F,]4 [D,F,]>[D,F,] | [G,,D,G,]2 [G,,G,]2 [G,B,]>G, | %6
 [C,G,]2 [C,G,]2 [C,G,][C,G,] | [D,G,]3 [D,C] [D,B,][D,A,] | [G,,B,]4 [D,A,]>[D,A,] | %9
 [D,D]2 [D,A,]2 [D,A,]>[D,D] | [D,D]2 [D,A,]2 [F,A,]>[F,A,] | G,3 [F,A,] [E,A,][D,A,] | %12
 [A,,A,]4 [D,A,]>[D,A,] | [D,D]2 [D,A,]2 [D,D]>[D,D] | [G,D]2 [G,B,]4 | %15
 A,[A,E] [A,D][A,^C] [A,,C][A,,A,] | A,4 [F,=C]2 || [G,B,]>[G,B,] [G,B,][G,B,] z2 | %18
 [G,B,]>[G,B,] [G,B,][G,B,] z2 | [G,D]>[G,D] [F,A,]2 [E,^C]2 | [D,D]>[D,A,] [D,A,]4 | %21
 [G,B,]>[G,B,] [G,D][G,B,] z2 | [C,C]>[C,C] [C,E][C,C] z2 | ([D,D]>[D,D] [D,D])[D,B,] [D,D][D,C] | %24
 [G,,B,]4 |] %25
V:4
 D,>D, | x6 | x6 | G,3 x3 | x6 | x11/2 G,/ | x6 | x6 | x6 | x6 | x6 | G,3 x3 | x6 | x6 | x6 | %15
 A, x5 | D,2 E,2 x2 || x6 | x6 | x6 | x6 | x6 | x6 | x6 | x4 |] %25

